Sweet-Rainbow/icons/Zoom.svg

<?xml version="1.0" encoding="UTF-8" standalone="no"?>
<!-- Generator: Gravit.io -->

<svg
   xmlns:dc="http://purl.org/dc/elements/1.1/"
   xmlns:cc="http://creativecommons.org/ns#"
   xmlns:rdf="http://www.w3.org/1999/02/22-rdf-syntax-ns#"
   xmlns:svg="http://www.w3.org/2000/svg"
   xmlns="http://www.w3.org/2000/svg"
   xmlns:sodipodi="http://sodipodi.sourceforge.net/DTD/sodipodi-0.dtd"
   xmlns:inkscape="http://www.inkscape.org/namespaces/inkscape"
   style="isolation:isolate"
   viewBox="0 0 36 36"
   width="48"
   height="48"
   version="1.1"
   id="svg11"
   sodipodi:docname="Zoom.svg"
   inkscape:version="0.92.4 (5da689c313, 2019-01-14)">
  <metadata
     id="metadata17">
    <rdf:RDF>
      <cc:Work
         rdf:about="">
        <dc:format>image/svg+xml</dc:format>
        <dc:type
           rdf:resource="http://purl.org/dc/dcmitype/StillImage" />
        <dc:title></dc:title>
      </cc:Work>
    </rdf:RDF>
  </metadata>
  <defs
     id="defs15" />
  <sodipodi:namedview
     pagecolor="#ffffff"
     bordercolor="#666666"
     borderopacity="1"
     objecttolerance="10"
     gridtolerance="10"
     guidetolerance="10"
     inkscape:pageopacity="0"
     inkscape:pageshadow="2"
     inkscape:window-width="640"
     inkscape:window-height="480"
     id="namedview13"
     showgrid="false"
     inkscape:zoom="29.365243"
     inkscape:cx="25.325443"
     inkscape:cy="32"
     inkscape:current-layer="svg11"
     units="px" />
  <linearGradient
     id="_lgradient_6"
     x1="0"
     y1="0.5"
     x2="1"
     y2="0.5"
     gradientTransform="matrix(48,0,0,-28.297,0,38.149)"
     gradientUnits="userSpaceOnUse">
    <stop
       offset="0%"
       stop-opacity="1"
       style="stop-color:rgb(84,51,255)"
       id="stop2" />
    <stop
       offset="51.73913043478261%"
       stop-opacity="1"
       style="stop-color:rgb(32,189,255)"
       id="stop4" />
    <stop
       offset="98.26086956521739%"
       stop-opacity="1"
       style="stop-color:rgb(165,254,203)"
       id="stop6" />
  </linearGradient>
  <g
     id="g825"
     transform="scale(0.75)">
    <path
       id="path9"
       d="m 35.943,30.857 v 3.863 c 0,1.892 -1.536,3.429 -3.429,3.429 H 5.823 v 0 c -1.262,0 -2.286,-1.025 -2.286,-2.286 v 0 c 0,-1.262 1.024,-2.286 2.286,-2.286 v 0 h 24.406 c 0.63,0 1.142,-0.512 1.142,-1.143 V 15.566 c 0,-0.631 -0.512,-1.143 -1.142,-1.143 H 5.714 c -0.63,0 -1.143,0.512 -1.143,1.143 v 12.263 0 c 0,1.261 -1.024,2.285 -2.285,2.285 v 0 C 1.024,30.114 0,29.09 0,27.829 v 0 V 13.28 C 0,11.388 1.536,9.851 3.429,9.851 h 29.085 c 1.893,0 3.429,1.537 3.429,3.429 v 3.863 0 l 4.606,-4.606 c 0.851,-0.851 2.52,-1.543 3.724,-1.543 h 1.545 c 1.204,0 2.182,0.978 2.182,2.182 v 21.648 c 0,1.204 -0.978,2.182 -2.182,2.182 h -1.545 c -1.204,0 -2.873,-0.692 -3.724,-1.543 z m 0,-6.457 v -0.8 l 0.663,-0.663 5.28,-5.28 c 0.851,-0.851 1.543,-0.565 1.543,0.639 v 0 11.408 c 0,1.204 -0.692,1.49 -1.543,0.639 l -5.28,-5.28 z"
       inkscape:connector-curvature="0"
       style="fill:url(#_lgradient_6);fill-rule:evenodd" />
  </g>
</svg>

<?xml version="1.0" encoding="UTF-8" standalone="no"?><!-- Generator: Gravit.io --><svg xmlns="http://www.w3.org/2000/svg" xmlns:xlink="http://www.w3.org/1999/xlink" style="isolation:isolate" viewBox="0 0 48 48" width="48pt" height="48pt"><linearGradient id="_lgradient_6" x1="0" y1="0.5" x2="1" y2="0.5" gradientTransform="matrix(48,0,0,-28.297,0,38.149)" gradientUnits="userSpaceOnUse"><stop offset="0%" stop-opacity="1" style="stop-color:rgb(84,51,255)"/><stop offset="51.73913043478261%" stop-opacity="1" style="stop-color:rgb(32,189,255)"/><stop offset="98.26086956521739%" stop-opacity="1" style="stop-color:rgb(165,254,203)"/></linearGradient><path d=" M 35.943 30.857 L 35.943 34.72 C 35.943 36.612 34.407 38.149 32.514 38.149 L 5.823 38.149 L 5.823 38.149 C 4.561 38.149 3.537 37.124 3.537 35.863 L 3.537 35.863 C 3.537 34.601 4.561 33.577 5.823 33.577 L 5.823 33.577 L 30.229 33.577 C 30.859 33.577 31.371 33.065 31.371 32.434 L 31.371 15.566 C 31.371 14.935 30.859 14.423 30.229 14.423 L 5.714 14.423 C 5.084 14.423 4.571 14.935 4.571 15.566 L 4.571 27.829 L 4.571 27.829 C 4.571 29.09 3.547 30.114 2.286 30.114 L 2.286 30.114 C 1.024 30.114 0 29.09 0 27.829 L 0 27.829 L 0 13.28 C 0 11.388 1.536 9.851 3.429 9.851 L 32.514 9.851 C 34.407 9.851 35.943 11.388 35.943 13.28 L 35.943 17.143 L 35.943 17.143 L 40.549 12.537 C 41.4 11.686 43.069 10.994 44.273 10.994 L 45.818 10.994 C 47.022 10.994 48 11.972 48 13.176 L 48 34.824 C 48 36.028 47.022 37.006 45.818 37.006 L 44.273 37.006 C 43.069 37.006 41.4 36.314 40.549 35.463 L 35.943 30.857 Z  M 35.943 24.4 L 35.943 23.6 L 36.606 22.937 L 41.886 17.657 C 42.737 16.806 43.429 17.092 43.429 18.296 L 43.429 18.296 L 43.429 29.704 C 43.429 30.908 42.737 31.194 41.886 30.343 L 36.606 25.063 L 35.943 24.4 Z " fill-rule="evenodd" fill="url(#_lgradient_6)"/></svg>
